icon_installer/data/icons/scalable/actions/show-bug-symbolic.svg

<?xml version="1.0" encoding="UTF-8"?>
<svg height="16px" viewBox="0 0 16 16" width="16px" xmlns="http://www.w3.org/2000/svg">
    <path d="m 5 0 c -0.550781 0 -1 0.449219 -1 1 c 0 0.691406 0.390625 1.285156 0.800781 1.605469 c -0.503906 0.671875 -0.800781 1.5 -0.800781 2.394531 h -1 v -1 h -2 v 1 c 0 0.832031 0.5625 1.523438 1.050781 1.769531 c 0.492188 0.246094 0.949219 0.230469 0.949219 0.230469 h 1 v 1 h -3 v 2 h 3 v 1 h -1 s -0.457031 -0.015625 -0.949219 0.230469 c -0.488281 0.246093 -1.050781 0.9375 -1.050781 1.769531 v 1 h 2 v -1 h 1.128906 c 0.449219 1.71875 2.015625 3 3.871094 3 s 3.421875 -1.28125 3.871094 -3 h 1.128906 v 1 h 2 v -1 c 0 -0.832031 -0.5625 -1.523438 -1.050781 -1.769531 c -0.492188 -0.246094 -0.949219 -0.230469 -0.949219 -0.230469 h -1 v -1 h 3 v -2 h -3 v -1 h 1 s 0.457031 0.015625 0.949219 -0.230469 c 0.488281 -0.246093 1.050781 -0.9375 1.050781 -1.769531 v -1 h -2 v 1 h -1 c 0 -0.894531 -0.296875 -1.722656 -0.800781 -2.394531 c 0.410156 -0.320313 0.800781 -0.914063 0.800781 -1.605469 c 0 -0.550781 -0.449219 -1 -1 -1 s -1 0.449219 -1 1 c -0.238281 0 -0.464844 0.085938 -0.644531 0.238281 c -0.425781 -0.152343 -0.882813 -0.238281 -1.355469 -0.238281 s -0.929688 0.085938 -1.355469 0.238281 c -0.179687 -0.152343 -0.40625 -0.238281 -0.644531 -0.238281 c 0 -0.550781 -0.449219 -1 -1 -1 z m 3 3 c 0.757812 0 1.398438 0.398438 1.738281 1 h -3.476562 c 0.339843 -0.601562 0.980469 -1 1.738281 -1 z m -2 3 h 4 v 6 c 0 1.125 -0.875 2 -2 2 s -2 -0.875 -2 -2 z m 0 0" fill="#222222"/>
</svg>

<svg xmlns="http://www.w3.org/2000/svg" width="16" height="16"><path fill="#222" d="M5 0c-.55 0-1 .45-1 1 0 .691.39 1.285.8 1.605C4.298 3.277 4 4.105 4 5H3V4H1v1c0 .832.563 1.523 1.05 1.77.493.246.95.23.95.23h1v1H1v2h3v1H3s-.457-.016-.95.23C1.563 11.477 1 12.168 1 13v1h2v-1h1.129c.45 1.719 2.016 3 3.871 3s3.422-1.281 3.871-3H13v1h2v-1c0-.832-.563-1.523-1.05-1.77-.493-.246-.95-.23-.95-.23h-1v-1h3V8h-3V7h1s.457.016.95-.23C14.437 6.523 15 5.832 15 5V4h-2v1h-1c0-.895-.297-1.723-.8-2.395.41-.32.8-.914.8-1.605 0-.55-.45-1-1-1s-1 .45-1 1a.995.995 0 0 0-.645.238C8.93 1.086 8.473 1 8 1s-.93.086-1.355.238A.995.995 0 0 0 6 1c0-.55-.45-1-1-1zm3 3c.758 0 1.398.398 1.738 1H6.262c.34-.602.98-1 1.738-1zM6 6h4v6c0 1.125-.875 2-2 2s-2-.875-2-2zm0 0"/></svg>
